svg/fluentui-system-icons/ic_fluent_chart_multiple_24_regular.svg

<svg width="24" height="24" viewBox="0 0 24 24" fill="none" xmlns="http://www.w3.org/2000/svg">
<path d="M13 11.75H19.7146C20.0549 11.4029 20.4956 11.1546 20.9896 11.0521C20.7558 6.01337 16.5966 2 11.5 2C6.25329 2 2 6.25329 2 11.5C2 16.579 5.98572 20.7271 11 20.9871V19.5L11 19.4846C6.81466 19.2266 3.5 15.7504 3.5 11.5C3.5 7.16536 6.9474 3.63591 11.25 3.50383V10C11.25 10.9665 12.0335 11.75 13 11.75ZM13 10.25C12.8619 10.25 12.75 10.1381 12.75 10V3.59708C16.1673 4.13328 18.8667 6.83275 19.4029 10.25H13ZM21.5 12C20.6716 12 20 12.6716 20 13.5V21.5C20 22.3284 20.6716 23 21.5 23C22.3284 23 23 22.3284 23 21.5V13.5C23 12.6716 22.3284 12 21.5 12ZM13.5 18C12.6716 18 12 18.6716 12 19.5V21.5C12 22.3284 12.6716 23 13.5 23C14.3284 23 15 22.3284 15 21.5V19.5C15 18.6716 14.3284 18 13.5 18ZM16 16.5C16 15.6716 16.6716 15 17.5 15C18.3284 15 19 15.6716 19 16.5V21.5C19 22.3284 18.3284 23 17.5 23C16.6716 23 16 22.3284 16 21.5V16.5Z" fill="#212121"/>
</svg>

<svg xmlns="http://www.w3.org/2000/svg" width="24" height="24"><path d="M13 11.75h6.715c.34-.347.78-.595 1.275-.698A9.5 9.5 0 0 0 11.5 2 9.5 9.5 0 0 0 2 11.5c0 5.079 3.986 9.227 9 9.487v-1.502a8 8 0 0 1 .25-15.981V10c0 .966.784 1.75 1.75 1.75Zm0-1.5a.25.25 0 0 1-.25-.25V3.597a8.006 8.006 0 0 1 6.653 6.653H13ZM21.5 12a1.5 1.5 0 0 0-1.5 1.5v8a1.5 1.5 0 0 0 3 0v-8a1.5 1.5 0 0 0-1.5-1.5Zm-8 6a1.5 1.5 0 0 0-1.5 1.5v2a1.5 1.5 0 0 0 3 0v-2a1.5 1.5 0 0 0-1.5-1.5Zm2.5-1.5a1.5 1.5 0 0 1 3 0v5a1.5 1.5 0 0 1-3 0v-5Z"/></svg>
